public/illustrations/_earth.svg

<svg width="216" height="221" viewBox="0 0 216 221" fill="none" xmlns="http://www.w3.org/2000/svg">
<path d="M215.315 107.734C215.315 163.66 177.936 209.109 126.824 218.595C81.7992 226.949 36.0667 204.437 13.5544 162.952C-16.3203 107.734 4.91765 38.6398 60.278 11.0305C79.817 1.40265 101.905 -2.13703 123.426 1.26103C144.947 4.65909 164.91 14.5702 180.627 29.7199C191.387 39.7725 199.882 51.8072 205.829 65.2579C211.776 78.7086 215.032 93.1503 215.315 107.734ZM110.541 10.6058C109.125 14.1454 107.568 17.5435 105.869 20.9415C101.48 28.5872 95.3916 34.3922 85.9053 33.2595C80.1003 32.5516 76.4189 35.1001 72.3129 38.7813C68.49 42.321 64.1009 45.2943 59.287 47.2765C52.3492 49.9666 45.8363 46.9934 39.8897 43.4537C37.1995 41.8963 35.7837 42.1794 33.9431 44.5864C26.7222 53.0815 21.2 62.7094 17.3772 73.0451C14.8286 80.4076 12.9881 87.9117 10.7227 95.9821C25.0229 97.9643 31.253 106.743 31.8193 119.061C32.3857 130.529 36.9163 139.449 45.1283 147.095C46.8273 148.794 48.3849 150.776 49.8007 152.758C54.7563 158.988 57.7296 166.492 58.2959 174.279C58.5791 180.509 58.5791 186.88 58.2959 193.11C58.1543 193.818 58.2959 194.668 58.579 195.375C59.0038 196.083 59.5701 196.65 60.278 196.933C70.3307 202.596 81.3746 206.561 92.7015 208.684C94.9669 209.109 95.6748 208.118 96.5243 206.136C98.2233 201.605 100.347 197.216 102.613 192.827C104.028 189.854 106.294 187.305 109.125 185.606C111.957 183.907 115.214 183.057 118.47 183.057C123.001 183.057 127.39 181.358 130.646 178.243C139.708 169.748 150.186 170.032 160.238 176.686C164.203 179.235 167.742 182.349 171.565 185.323C195.069 168.757 212.342 118.353 203.28 93.8583C196.626 95.8405 190.254 98.9554 183.458 99.6633C172.839 100.796 165.76 105.044 163.353 115.804C162.928 117.503 162.079 119.202 160.946 120.618C157.69 124.866 153.442 126.989 148.203 125.432C145.372 124.582 142.681 123.308 140.274 121.609C137.301 119.627 134.611 117.22 131.779 115.096C125.408 110.282 121.443 110.565 115.922 116.087C114.789 117.22 113.656 118.636 112.524 119.769C109.55 122.883 106.294 125.857 102.896 128.688C99.356 131.237 95.6748 133.361 91.5688 134.918C78.9676 139.449 68.7734 132.936 67.216 119.627C66.0833 110.424 69.7644 102.495 73.4456 94.5662C75.711 89.8939 76.419 84.6552 75.2863 79.5581C73.5873 71.7709 76.2773 65.3995 82.9319 61.2935C87.7458 58.3202 92.8429 55.9133 98.0816 54.0727C105.019 51.6657 111.391 48.5508 116.63 43.4537C125.408 34.817 134.186 26.1802 142.823 17.5434C137.16 13.8622 119.461 10.0394 110.683 10.4641L110.541 10.6058ZM76.8436 113.822C76.8436 125.007 81.5159 128.122 89.5864 124.441C93.126 122.742 96.5243 120.476 99.356 117.786C102.896 114.671 106.01 110.99 109.408 107.734C117.62 99.9465 126.682 99.2385 136.027 105.61C139.425 107.875 142.54 110.707 145.797 113.114C150.894 116.795 152.451 116.512 154.292 110.565C158.256 97.5395 167.176 91.4513 180.485 89.7523C186.432 89.0443 192.095 86.071 197.9 84.0888C200.59 83.0977 200.873 81.2571 200.024 78.567C193.511 59.0282 181.335 41.8962 164.911 29.5782C154.858 21.9326 153.3 21.9326 143.814 30.5693C138.717 35.2417 134.186 40.4804 129.372 45.4359C120.877 54.0726 111.249 60.8687 99.356 64.2668C95.6748 65.5411 92.2766 67.0985 89.0201 69.2223C87.4627 69.9302 86.3301 71.0629 85.6222 72.6204C84.9143 74.0363 84.7724 75.7353 85.3388 77.2927C87.321 85.5047 85.3388 92.8671 81.7991 100.371C79.9585 104.76 78.2596 109.15 76.9853 113.68L76.8436 113.822ZM10.7227 106.459C7.18304 133.219 29.6954 181.783 47.96 187.73C49.6591 173.996 46.1194 162.103 35.9252 152.475C34.3677 151.059 33.0933 149.218 31.5359 147.519C26.5803 142.422 23.4657 135.768 22.6162 128.688C22.1914 125.149 21.7667 121.609 21.2003 118.069C20.3508 111.132 17.5191 108.017 10.5813 106.459H10.7227ZM163.353 191.977C160.521 189.712 157.973 187.588 155.283 185.748C149.619 181.783 143.389 180.226 136.876 186.456C132.912 190.42 127.673 192.827 122.151 193.252C113.231 193.96 107.143 200.331 106.718 209.534C123.143 211.516 149.478 203.446 163.353 192.119V191.977ZM98.7895 11.0305C82.3654 10.7473 52.3493 23.7733 44.8452 34.2506C52.7741 39.4893 58.4375 38.7814 64.9504 31.8437C65.6584 31.1357 66.3663 30.2862 67.0742 29.5782C69.198 27.3128 71.8882 25.4723 74.8615 24.3396C77.8348 23.2069 80.9497 22.6405 84.0646 22.7821C92.4182 23.2069 96.949 19.2425 98.9312 10.8889L98.7895 11.0305Z" fill="#102185"/>
<path d="M98.5057 149.926C99.3552 147.377 100.63 144.829 101.904 142.422C107.001 134.918 114.647 129.538 123.283 126.847C125.124 126.14 127.248 125.998 129.23 126.423C131.212 126.848 132.911 127.98 134.327 129.538C137.017 132.511 137.3 136.475 134.893 140.581C129.371 149.784 120.876 155.589 111.532 159.837C105.019 162.81 98.9306 157.572 98.6474 149.926H98.5057ZM109.833 147.661L110.824 148.935C115.213 145.678 119.602 142.28 123.85 138.882L122.858 137.608L109.691 147.519L109.833 147.661Z" fill="#102185"/>
</svg>

<svg xmlns="http://www.w3.org/2000/svg" width="216" height="221" fill="none" viewBox="0 0 216 221"><path fill="#102185" d="M215.315 107.734c0 55.926-37.379 101.375-88.491 110.861-45.025 8.354-90.757-14.158-113.27-55.643C-16.32 107.734 4.918 38.64 60.278 11.031c19.539-9.628 41.627-13.168 63.148-9.77a106.27 106.27 0 0 1 57.201 28.459c10.76 10.053 19.255 22.087 25.202 35.538s9.203 27.892 9.486 42.476M110.541 10.606c-1.416 3.54-2.973 6.938-4.672 10.336-4.389 7.645-10.477 13.45-19.964 12.318-5.805-.708-9.486 1.84-13.592 5.521-3.823 3.54-8.212 6.513-13.026 8.496-6.938 2.69-13.45-.284-19.397-3.823-2.69-1.558-4.106-1.275-5.947 1.132-7.22 8.496-12.743 18.123-16.566 28.46-2.548 7.362-4.389 14.866-6.654 22.936 14.3 1.982 20.53 10.761 21.096 23.079.567 11.468 5.097 20.388 13.31 28.034 1.698 1.699 3.256 3.681 4.672 5.663 4.955 6.23 7.929 13.734 8.495 21.521.283 6.23.283 12.601 0 18.831-.142.708 0 1.558.283 2.265.425.708.991 1.275 1.699 1.558 10.053 5.663 21.097 9.628 32.423 11.751 2.266.425 2.974-.566 3.823-2.548 1.7-4.531 3.823-8.92 6.089-13.309 1.415-2.973 3.681-5.522 6.512-7.221 2.832-1.699 6.089-2.549 9.345-2.549 4.531 0 8.92-1.699 12.176-4.814 9.062-8.495 19.54-8.211 29.592-1.557 3.965 2.549 7.504 5.663 11.327 8.637 23.504-16.566 40.777-66.97 31.715-91.465-6.654 1.983-13.026 5.097-19.822 5.805-10.619 1.133-17.698 5.381-20.105 16.141-.425 1.699-1.274 3.398-2.407 4.814-3.256 4.248-7.504 6.371-12.743 4.814-2.831-.85-5.522-2.124-7.929-3.823-2.973-1.982-5.663-4.389-8.495-6.513-6.371-4.814-10.336-4.531-15.857.991-1.133 1.133-2.266 2.549-3.398 3.682-2.974 3.114-6.23 6.088-9.628 8.919-3.54 2.549-7.221 4.673-11.327 6.23-12.601 4.531-22.796-1.982-24.353-15.291-1.133-9.203 2.548-17.132 6.23-25.06 2.265-4.673 2.973-9.912 1.84-15.009-1.699-7.787.991-14.159 7.646-18.265a78 78 0 0 1 15.15-7.22c6.937-2.407 13.309-5.522 18.548-10.62 8.778-8.636 17.556-17.273 26.193-25.91-5.663-3.68-23.362-7.504-32.14-7.079zM76.844 113.822c0 11.185 4.672 14.3 12.742 10.619 3.54-1.699 6.938-3.965 9.77-6.655 3.54-3.115 6.654-6.796 10.052-10.052 8.212-7.787 17.274-8.495 26.619-2.124 3.398 2.265 6.513 5.097 9.77 7.504 5.097 3.681 6.654 3.398 8.495-2.549 3.964-13.025 12.884-19.114 26.193-20.813 5.947-.708 11.61-3.681 17.415-5.663 2.69-.991 2.973-2.832 2.124-5.522-6.513-19.539-18.689-36.67-35.113-48.989-10.053-7.645-11.611-7.645-21.097.991-5.097 4.673-9.628 9.911-14.442 14.867-8.495 8.637-18.123 15.433-30.016 18.83-3.681 1.275-7.08 2.832-10.336 4.956q-2.336 1.062-3.398 3.398a5.94 5.94 0 0 0-.283 4.673c1.982 8.212 0 15.574-3.54 23.078-1.84 4.389-3.54 8.779-4.814 13.309zm-66.121-7.363c-3.54 26.76 18.972 75.324 37.237 81.271 1.7-13.734-1.84-25.627-12.035-35.255-1.557-1.416-2.832-3.257-4.39-4.956-4.955-5.097-8.07-11.751-8.919-18.831-.425-3.539-.85-7.079-1.416-10.619-.85-6.937-3.68-10.052-10.619-11.61zm152.63 85.518c-2.832-2.265-5.38-4.389-8.07-6.229-5.664-3.965-11.894-5.522-18.407.708a23.4 23.4 0 0 1-14.725 6.796c-8.92.708-15.008 7.079-15.433 16.282 16.425 1.982 42.76-6.088 56.635-17.415zM98.789 11.031c-16.424-.284-46.44 12.742-53.944 23.22 7.93 5.238 13.593 4.53 20.105-2.407.708-.708 1.416-1.558 2.124-2.266a21 21 0 0 1 7.788-5.238c2.973-1.133 6.088-1.7 9.203-1.558 8.353.425 12.884-3.54 14.866-11.893z"/><path fill="#102185" d="M98.506 149.926c.85-2.549 2.124-5.097 3.398-7.504 5.097-7.504 12.743-12.884 21.379-15.575 1.841-.707 3.965-.849 5.947-.424s3.681 1.557 5.097 3.115c2.69 2.973 2.973 6.937.566 11.043-5.522 9.203-14.017 15.008-23.361 19.256-6.513 2.973-12.601-2.265-12.885-9.911zm11.327-2.265.991 1.274a456 456 0 0 0 13.026-10.053l-.992-1.274-13.167 9.911z"/></svg>
